icons/email.svg

<svg fill="none" height="26" viewBox="0 0 26 26" width="26" xmlns="http://www.w3.org/2000/svg"><path d="m21.125 5.5h-16.25c-.49728 0-.97421.19753-1.32584.54916s-.54916.82856-.54916 1.32584v11.25c0 .4973.19753.9742.54916 1.3258.35163.3517.82856.5492 1.32584.5492h16.25c.4973 0 .9742-.1975 1.3258-.5492.3517-.3516.5492-.8285.5492-1.3258v-11.25c0-.49728-.1975-.97421-.5492-1.32584-.3516-.35163-.8285-.54916-1.3258-.54916zm-.625 3.75-7.5 5.625-7.5-5.625v-1.25l7.5 3.75 7.5-3.75z" fill="#ed1c24"/></svg>

<svg width="26" height="26" viewBox="0 0 26 26" fill="none" xmlns="http://www.w3.org/2000/svg">
<path d="M21.125 5.5H4.875C4.37772 5.5 3.90079 5.69753 3.54916 6.04916C3.19753 6.40079 3 6.87772 3 7.375V18.625C3 19.1223 3.19753 19.5992 3.54916 19.9508C3.90079 20.3025 4.37772 20.5 4.875 20.5H21.125C21.6223 20.5 22.0992 20.3025 22.4508 19.9508C22.8025 19.5992 23 19.1223 23 18.625V7.375C23 6.87772 22.8025 6.40079 22.4508 6.04916C22.0992 5.69753 21.6223 5.5 21.125 5.5ZM20.5 9.25L13 14.875L5.5 9.25V8L13 11.75L20.5 8V9.25Z" fill="#ED1C24"/>
</svg>
